X: 195
T: Amaleihuo
%%abc-version 2.0
%%abcx-abcm2ps-target-version 5.9.1 (29 Sep 2008)
%%abc-creator hum2abc beta
%%abcx-conversion-date 2013/10/02 07:44:28
%%abc-edited-by Helmut Schaffrath
%%humdrum-veritas 4143497556
%%humdrum-veritas-data 2540645548
%%continueall 1
%%barnumbers 0
L: 1/8
M: 3/4
K: D
A2B2e> f d c [I:setbarnb 1]| 
B6A2 | 
B e d/ e/ B/ d/A2B2 | 
d2e d/ e/ d d A/ B/ G/ A/ | 
E2A G G A/ G/ E G | 
A2B/ d/ B/ A/G2A c | 
B2A G/ A/F2E/ F/ D | 
E4E F B, D | 
E zz6 | 
F2>A2B2e2 | 
d e B A F A E F | 
d2d A/ B/ F A E/ F/ D/ E/ | 
B,2E D/ E/ D E/ D/ B, D | 
E2F/ A/ E/ F/D2E F | 
B2A GF2E/ F/ D | 
E4E F B, D | 
E zz6 | 
F2>A2B2e2 | 
d e B A F A E F | 
d2d A/ B/ F A E/ F/ D/ E/ | 
B,2E D/ E/ D E/ D/ B, D | 
E2F/ A/ E/ F/D2E F | 
B2A GF2E/ F/ D | 
E4e f B d | 
e2z2 |]  



